X:20
T:Boyne Hunt
Z: id:dc-reel-20
M:C
L:1/8
K:D Major
B|A2FA DAFA|DAFA BEEB|A2FA DAFB|ABde fdd:|!
e|faaf afdf|gfga beeg|faaf afdB|ABde fdde|!
faaf afdf|gfga beeg|f3e d3B|ABde fdd|]!

